X:670
T: "Die Heirath"
N: Z1351
O: Europa, Mitteleuropa, Deutschland, Westfalen
R: Zech -, Schalks - Lied; Ehestands - Lied, Bettel - Hochzeit
M: 2/4
L: 1/16
K: G
D2 | G2B2A2G2 | F2E2D2D2 |
E2G2F2E2 | D2C2B,2B,2 |
E2E2D2D2 | E2E2D2z2 |
D2G2G2G2 | A2A2G2z2 |
d4B4 | G2FED2z2 |
E2G2F2E2 | D2C2B,2z2 |
E2E2D4 | E2E2D4 |
G2G2F2A2 | A4G2

@@@ Tune index: 10428
